src/assets/icons/sweep.svg

<svg xmlns="http://www.w3.org/2000/svg" xmlns:xlink="http://www.w3.org/1999/xlink" fill="none" version="1.1" width="24" height="24" viewBox="0 0 24 24"><g><g></g><g><path d="M9.979993148040771,4.178868148040771C9.979993148040771,3.6751911480407715,9.580633148040771,3.3834579480407716,9.197283148040771,3.4005006940407716L5.8625131480407715,3.4004020200407714L5.695523148040771,3.4057066280407713C4.373735148040772,3.4901255480407714,3.4004035000407713,4.571203148040771,3.4004035000407713,5.863173148040771L3.4004035000407713,9.20331314804077L3.4095102780407713,9.308373148040772C3.4615769480407717,9.68661314804077,3.7189781480407715,9.981773148040771,4.178680148040772,9.981773148040771C4.680423148040772,9.981773148040771,4.948443148040772,9.61294314804077,4.956933148040772,9.205393148040772L4.956953148040771,5.858423148040771L4.963973148040772,5.739903148040772C5.019573148040772,5.277973148040772,5.398663148040772,4.966103148040771,5.8596731480407716,4.957313148040772L9.20172314804077,4.957333148040771L9.287593148040772,4.9557931480407715C9.632193148040772,4.927713148040771,9.979993148040771,4.638913148040771,9.979993148040771,4.178868148040771ZM18.133793148040773,3.4004058630407714C19.46439314804077,3.4095530380407717,20.50869314804077,4.444913148040771,20.590193148040772,5.704603148040771L20.59529314804077,5.863173148040771L20.59519314804077,9.211973148040771C20.57869314804077,9.63302314804077,20.319993148040773,9.98652314804077,19.816993148040773,9.98652314804077C19.35409314804077,9.98652314804077,19.09539314804077,9.689223148040771,19.04309314804077,9.308923148040773L19.03399314804077,9.20331314804077L19.03399314804077,5.856843148040772C19.04159314804077,5.378543148040771,18.69279314804077,5.012923148040771,18.239493148040772,4.963123148040772L18.13319314804077,4.957333148040771L14.773693148040772,4.957003148040771C14.375993148040772,4.9423731480407715,14.018693148040771,4.732523148040771,14.010893148040772,4.180318148040771C14.003293148040772,3.6559641480407716,14.347893148040772,3.4351056480407713,14.700993148040771,3.4042300980407716L14.789193148040772,3.4004035000407713L18.133793148040773,3.4004058630407714ZM17.24179314804077,11.99783314804077C17.24179314804077,11.597563148040772,16.930893148040774,11.233933148040771,16.47139314804077,11.219413148040772L7.531003148040772,11.219373148040772L7.421943148040771,11.22817314804077C7.031813148040771,11.287463148040771,6.753823148040771,11.635633148040771,6.753823148040771,11.99783314804077C6.753823148040771,12.396793148040771,7.077973148040771,12.771423148040771,7.5310331480407715,12.776293148040772L16.463493148040772,12.776293148040772L16.57539314804077,12.76871314804077C16.974093148040772,12.713803148040771,17.24179314804077,12.368873148040771,17.24179314804077,11.99783314804077ZM4.178678148040771,14.009193148040772C4.639393148040772,14.009193148040772,4.906353148040772,14.323993148040772,4.954123148040772,14.694793148040771L4.961693148040771,14.797093148040771L4.961693148040771,18.141993148040772C4.961693148040771,18.632093148040774,5.302203148040771,18.981193148040774,5.748793148040772,19.03569314804077L5.8625131480407715,19.04309314804077L9.204503148040772,19.04309314804077C9.61058314804077,19.035193148040772,9.984733148040771,19.31389314804077,9.984733148040771,19.821593148040773C9.984733148040771,20.28009314804077,9.677113148040771,20.54519314804077,9.308363148040772,20.59249314804077L9.206463148040772,20.59999314804077L5.8625131480407715,20.59999314804077C4.574213148040771,20.59999314804077,3.4947242480407716,19.624793148040773,3.4062438180407715,18.30409314804077L3.4004018600407715,18.137293148040772L3.4005004240407715,14.792093148040772C3.3847740480407715,14.438093148040771,3.6320671480407714,14.070493148040772,4.066276148040772,14.016093148040772L4.178678148040771,14.009193148040772ZM19.816993148040773,14.013893148040772C20.275693148040773,14.013893148040772,20.55439314804077,14.340593148040771,20.591193148040773,14.696893148040772L20.59499314804077,14.787093148040771L20.59999314804077,14.792393148040771L20.59999314804077,18.132493148040773C20.59999314804077,19.360693148040774,19.50959314804077,20.50049314804077,18.29079314804077,20.589693148040773L18.13789314804077,20.59529314804077L14.789793148040772,20.59519314804077C14.37649314804077,20.577993148040772,14.015693148040771,20.317193148040772,14.015693148040771,19.816793148040773C14.015693148040771,19.363893148040773,14.327393148040771,19.102393148040772,14.693093148040772,19.04799314804077L14.793993148040771,19.03839314804077L18.13789314804077,19.03839314804077C18.66919314804077,19.03839314804077,18.987193148040774,18.76119314804077,19.032993148040774,18.26569314804077L19.03869314804077,18.137293148040772L19.03869314804077,14.792393148040771C19.03869314804077,14.407293148040772,19.31909314804077,14.013893148040772,19.816993148040773,14.013893148040772Z" fill-rule="evenodd" fill="#FFFFFF" fill-opacity="1"/></g></g></svg>

<svg xmlns="http://www.w3.org/2000/svg" width="24" height="24" fill="none"><path fill="#FFF" fill-rule="evenodd" d="M9.98 4.179c0-.504-.4-.796-.783-.778H5.863l-.167.005A2.44 2.44 0 0 0 3.4 5.863v3.34l.01.105c.052.379.309.674.769.674.501 0 .77-.37.778-.777V5.858l.007-.118c.056-.462.435-.774.896-.783h3.342l.086-.001a.763.763 0 0 0 .692-.777m8.154-.779a2.47 2.47 0 0 1 2.456 2.305l.005.158v3.349c-.016.421-.275.775-.778.775-.463 0-.722-.298-.774-.678l-.009-.106V5.857a.876.876 0 0 0-.795-.894l-.106-.006h-3.36c-.397-.015-.754-.224-.762-.777-.008-.524.337-.745.69-.776l.088-.004zm-.892 8.598a.78.78 0 0 0-.77-.779H7.53l-.11.01a.794.794 0 0 0-.667.769c0 .399.324.773.777.778h8.932l.112-.007a.776.776 0 0 0 .667-.771M4.179 14.009c.46 0 .727.315.775.686l.008.102v3.345c0 .49.34.84.787.894l.114.007h3.342c.406-.008.78.27.78.779 0 .458-.308.723-.677.77l-.102.008H5.863a2.446 2.446 0 0 1-2.457-2.296l-.006-.167v-3.345a.75.75 0 0 1 .666-.776zm15.638.005c.459 0 .737.327.774.683l.004.09.005.005v3.34c0 1.229-1.09 2.368-2.31 2.458l-.152.005H14.79c-.414-.017-.774-.278-.774-.778 0-.453.311-.715.677-.769l.101-.01h3.344c.531 0 .85-.277.895-.772l.006-.129v-3.345c0-.385.28-.778.778-.778"/></svg>
